symbolic/mimes/text-css-symbolic.svg

<svg width="16px" height="16px" version="1.1" viewBox="0 0 16 16" xmlns="http://www.w3.org/2000/svg">
 <path d="m4 2c-1.108 0-2 0.89201-2 2v3l-2 1 2 1v3c0 1.108 0.89201 2 2 2h1v-1h-1c-0.554 0-1-0.446-1-1v-3.5l-1-0.5 1-0.5v-3.5c0-0.554 0.446-1 1-1h1v-1zm7 0v1h1c0.554 0 1 0.446 1 1v3.5l1 0.5-1 0.5v3.5c0 0.554-0.446 1-1 1h-1v1h1c1.108 0 2-0.892 2-2v-3l2-1-2-1v-3c0-1.108-0.892-2-2-2z" fill="gray" fill-rule="evenodd" stop-color="#000000"/>
</svg>

<svg xmlns="http://www.w3.org/2000/svg" width="16" height="16" viewBox="0 0 16 16"><path fill="gray" fill-rule="evenodd" d="M4 2c-1.108 0-2 .892-2 2v3L0 8l2 1v3c0 1.108.892 2 2 2h1v-1H4c-.554 0-1-.446-1-1V8.5L2 8l1-.5V4c0-.554.446-1 1-1h1V2zm7 0v1h1c.554 0 1 .446 1 1v3.5l1 .5-1 .5V12c0 .554-.446 1-1 1h-1v1h1c1.108 0 2-.892 2-2V9l2-1-2-1V4c0-1.108-.892-2-2-2z"/></svg>
